X:1
T:Title
%%score { ( 1 4 ) | ( 2 3 ) }
L:1/8
M:4/4
K:D
V:1 treble nm="Grand Piano"
V:4 treble 
V:2 bass 
V:3 bass 
V:1
 z4 z2[Q:1/4=92] [DF][EG] | [FA][Fd][Ac][CGB] [DFA]2[K:bass] [F,D][G,DE] | %2
 [A,DF][B,DG][A,DF][K:bass][G,CE] [F,D]2[K:treble] [CE][DF] | [EG][^DF][EG][FA] [Ac][GB][FA][EG] | %4
 [DF]6 [DF][EG] | [FA][Fd][Ac][GB] [DFA]2[K:bass] [F,D][G,DE] | %6
 [A,DF][B,DG][DF][K:bass][G,CE] [F,D]2[K:treble] [FA][FA] | B>e ed cABc |[M:3/4] [Fd]6 | %9
[M:1/4] [FA][Fd] |[M:4/4] z2 c4 z2 |[M:3/4] z2 A4 |[M:1/4] F[FA] |[M:4/4] A>E EF ^GABc | %14
[M:7/8] A-A-A- A- A3 |[M:1/4] [FA][Fd] |[M:4/4] z2 c4 z2 |[M:3/4] z2 A4 |[M:1/4] [FA][FA] | %19
[M:4/4] B>e e2 A>d dd |[M:7/8] dcB c [Fd]3 |] %21
V:2
 z4 z2 [D,A,][D,A,] | [D,D][D,A,][D,B,]D, D,2 D,D, | D,G,,A,,A,, D,2 [A,,A,][A,,A,] | %3
 [A,,A,][A,,A,][A,,A,][A,,A,] [A,,A,][A,,A,][A,,A,][A,,A,] | [D,A,]6 [D,A,][D,A,] | %5
 [D,D][D,A,] [D,A,]A,/C/ D,2 D,D, | D,G,A,A,, D,2 [D,D][D,D] | %7
 [G,DG]>[G,B,G] [G,B,G][G,B,G] [A,G][A,CG][A,DG][A,G] |[M:3/4][K:bass] [D,A,]6 | %9
[M:1/4] [D,D][D,D] |[M:4/4][K:treble] [A,EG]>[A,EG] [A,EG][A,E] [A,E][A,E][A,CE][A,CG] | %11
[M:3/4][K:bass] [D,D]>[D,D] [D,D][D,D] [D,D][D,D] |[M:1/4] [D,A,D][D,D] | %13
[M:4/4] [E,CE]>[E,A,C] [E,A,C][E,A,C] [E,B,D][E,A,C][E,^G,D][E,G,E] | %14
[M:7/8] [A,C][A,B,][A,C] [A,D] [A,E]3 |[M:1/4] [D,D][D,D] | %16
[M:4/4][K:treble] [A,EG]>[A,EG] [A,EG][A,E] [A,E][A,E][A,CE][A,CG] | %17
[M:3/4][K:bass] [D,D]>[D,D] [D,D][D,D] [D,D][D,D] |[M:1/4] [D,D][D,D] | %19
[M:4/4][K:treble] [G,DG]>[G,B,G] [G,B,G]2 [A,DF]>[A,F] [A,F][A,DF] | %20
[M:7/8] [A,EG][A,EG][A,DG] [A,G][K:bass] [D,A,]3 |] %21
V:3
 x8 | x8 | x8 | x8 | x8 | z2 z D, z4 | x8 | x8 |[M:3/4][K:bass] x6 |[M:1/4] x2 | %10
[M:4/4][K:treble] x8 |[M:3/4][K:bass] x6 |[M:1/4] x2 |[M:4/4] x8 |[M:7/8] x7 |[M:1/4] x2 | %16
[M:4/4][K:treble] x8 |[M:3/4][K:bass] x6 |[M:1/4] x2 |[M:4/4][K:treble] x8 | %20
[M:7/8] x4[K:bass] x3 |] %21
V:4
 x8 | x6[K:bass] x2 | x3[K:bass] x3[K:treble] x2 | x8 | x8 | x6[K:bass] x2 | %6
 x3[K:bass] x3[K:treble] x2 | x8 |[M:3/4] x6 |[M:1/4] x2 |[M:4/4] d>c z G GGGB | %11
[M:3/4] [FB]>[FA] FF FF |[M:1/4] x2 |[M:4/4] x8 |[M:7/8] z DE F G3 |[M:1/4] x2 | %16
[M:4/4] d>c z G GGGB |[M:3/4] [FB]>[FA] FF FF |[M:1/4] x2 |[M:4/4] x8 |[M:7/8] x7 |] %21

